src/main/resources/icons/JavaUltimateIcons/icons/cdi/gutter/beanProperty.svg

<svg xmlns="http://www.w3.org/2000/svg" width="12" height="12" viewBox="0 0 12 12">
  <g fill="none" fill-rule="evenodd">
    <path fill="#F4AF3D" fill-opacity=".6" d="M12.0003995,8.50056 C12.0003995,10.43356 10.4334,11.99956 8.50039952,11.99956 C6.5664,11.99956 4.9994,10.43256 5.00039952,8.49956 C5.00039952,6.56656 6.5664,4.99956 8.50039952,4.99956 C10.4334,5.00056 12.0003995,6.56656 12.0003995,8.50056"/>
    <path fill="#40B6E0" fill-opacity=".7" d="M1.10685771,2.02704609 L4.87122144,5.83829445 C4.32352931,6.58372098 4,7.50407833 4,8.5 C4,9.78641277 4.53978891,10.9467511 5.40522293,11.7668712 C4.25364069,11.4593458 3.12840058,10.7672621 2.14694343,9.77360609 C-0.115285146,7.48325942 -0.794628003,4.41808609 1.10685771,2.02704609 Z M9.65258628,2.17467275 C10.5508282,3.0840793 11.1995169,4.11564283 11.5361817,5.1786058 C10.7351413,4.44627521 9.66968722,4 8.5,4 C7.46970501,4 6.52028042,4.34624734 5.76174055,4.92872771 L2.00028628,1.12080609 C4.361972,-0.804313912 7.38951485,-0.117380579 9.65258628,2.17467275 Z"/>
    <path fill="#231F20" fill-opacity=".7" d="M7.79852,8.75132062 C7.79852,9.39731486 8.143213,9.848192 8.72132,9.848192 C9.299427,9.848192 9.60008,9.16506959 9.60008,8.74507064 C9.60008,8.31632171 9.34145,7.666324 8.71472,7.666324 C8.08799,7.666324 7.79852,8.10532639 7.79852,8.75132062 Z M7.80008,10.1250047 C7.80488,10.1712546 7.80436,10.796253 7.79852,12 L7.00032,12 L7.00032,7.000075 L7.79852,7.000075 L7.79852,7.46632383 C8.02023859,7.15549128 8.36403859,7.000075 8.82992,7.000075 C9.52874211,7.000075 10.30032,7.36137787 10.30032,8.75132062 C10.30032,10.1412634 9.39280461,10.5144412 8.82992,10.5144412 C8.45466359,10.5144412 8.11138359,10.384629 7.80008,10.1250047 Z"/>
  </g>
</svg>

<svg xmlns="http://www.w3.org/2000/svg" width="12" height="12" viewBox="0 0 12 12"><rect id="frame" width="12" height="12" fill="none"/><g fill="none" fill-rule="evenodd"><path fill="#F4AF3D" fill-opacity=".6" d="M12 8.5A3.5 3.5 0 0 1 8.5 12 3.5 3.5 0 1 1 12 8.5"/><path fill="#40B6E0" fill-opacity=".7" d="M1.107 2.027L4.87 5.838A4.48 4.48 0 0 0 4 8.5c0 1.286.54 2.447 1.405 3.267-1.151-.308-2.277-1-3.258-1.993-2.262-2.29-2.942-5.356-1.04-7.747zm8.546.148c.898.91 1.547 1.94 1.883 3.004A4.484 4.484 0 0 0 8.5 4a4.48 4.48 0 0 0-2.738.929L2 1.12C4.362-.804 7.39-.117 9.653 2.175z"/><path fill="#231F20" fill-opacity=".7" d="M7.799 8.751c0 .646.344 1.097.922 1.097.578 0 .88-.683.88-1.103 0-.429-.26-1.079-.886-1.079-.627 0-.916.44-.916 1.085zm.001 1.374c.005.046.004.671-.001 1.875H7V7H7.8v.466C8.02 7.156 8.364 7 8.829 7c.7 0 1.471.361 1.471 1.751s-.907 1.763-1.47 1.763c-.375 0-.719-.13-1.03-.389z"/></g></svg>
